X: 1
T: Loftus Jones
C: Turlough O&#8217;Carolan
M: 4/4
L: 1/8
R: reel
Q:1/4=220
K: Amajor
V:1
Q:1/4=220
|:a4 g2 f2|e2 d2 cd e2|cdBA A2 z2 |cdcB A2B2|
cd e2 de f2|e2 dc dcBA|GAGF E2 z2|ABAG F2 d2|
edec dcdB|A2 E2 F2 G2|A2 F2 G2 A2|B2 G2 A2 B2|c2 A2 B2 c2|
d4 e2 z2|dcBA GA B2|A2 ED C2 E2|A4 A2 z2 \:|
|:e2 G2 A2 F2|G2 E2 F2 G2|A2 B2 G2 c2|F4 G4|
c2 c2 B4|ABcd c2 B2|ABcd edcB|A2 G2 F4|
CFAF CFAF|EGEG EGEG|FAFA FAFA|GBGB GBGB|
AcAc AcAc|AcAc AcAc|fg a2 g4|f4 f2 g2|
aAaA gAgA|fAfA eAeA|dBdB cAcA|BAGF EF G2|
A2 ED C2 E2|BAGF E2 e2|dcBA GABG|A4 A2 z2 \:|
V:2
|:A4  G2  F2 |E2  D2C2 E2 |C2B,2 A,2  z2 |C2C2 A,2 B,2 |
C2 E2D2 F2 |E2D2D2B,2|G,2G,2 E,2  z2|A,2A,2 F,2  D2 |
E2E2D2D2|A,2  E,2  F,2  G,2 |A,2  F,2  G,2  A,2 |B,2  G,2  A,2  B,2 |C2  A,2  B,2  C2 |
D4  E2  z2|D2B,2G,2 B,2 |A,2E,2 C,2  E,2 |A,4  A,2  z2 \:|
|:E2  G,2  A,2  F,2 |G,2  E,2  F,2  G,2 |A,2  B,2  G,2  C2 |F,4  G,4 |
C2  C2  B,4 |A,2C2 C2  B,2 |A,2C2E2C2|A,2  G,2  F,4 |
C,2A,2C,2A,2|E,2E,2E,2E,2|F,2F,2F,2F,2|G,2G,2G,2G,2|
A,2A,2A,2A,2|A,2A,2A,2A,2|F2 A2  G4 |F4  F2  G2 |
A2A2G2G2|F2F2E2E2|D2D2C2C2|B,2G,2E,2 G,2 |
A,2E,2 C,2  E,2 |B,2G,2 E,2  E2 |D2B,2G,2B,2|A,4  A,2  z2 \:|
